X: 15624
T: Gobby O, The
R: jig
M: 6/8
K: Adorian
B|:c2A AGA|E2A ABc|BAB GFG|dBG GAB|
c2A Bcd|e2a ~a2b|age edB|cAA A2:|
E|:A2B c2d|e2f ~g3|agf gfe|dBG ~G2E|
A2B c2d|efg ~a2b|age edB|cAA A2:|

